X: 26975
T: Miss Douglas
R: jig
M: 6/8
K: Dmajor
g|f2d edc|d2B AGF|GAB dAF|GEE E2g|
f2d edc|d2B AGF|GAB dAG|FDD D2:|
|:g|afd ded|gfg a2f|g2a baf|gee efg|
[1 afd ded|gfg a2f|g2a bag|fdd d2:|
[2 f2d e2c|d2B AGF|GAB dAG|FDD D2||

